X: 4
T: Pollonesse #4
M: 3/4
L: 1/16
K: D
Q:120
D2D2 F2D2 F2D2| F2F2 A2F2 A2F2| A2A2 d2d2 f2f2|e2e2 d4D4:|
|:f2A2 e2A2 e2A2|f2A2 e2A2 e2A2|f2f2 g2g2 f2f2|e2e2 d4D4:|

